;FLAVOR:Marlin
;TIME:1012
;Filament used: 0.603132m
;Layer height: 0.15
;MINX:94.701
;MINY:94.701
;MINZ:0.3
;MAXX:125.299
;MAXY:125.299
;MAXZ:16.35
;Generated with Cura_SteamEngine 4.9.0
M140 S60
M105
M190 S60
M104 S200
M105
M109 S200
M82 ;absolute extrusion mode
G28 ;Home
G1 Z15.0 F2000 ;Move the platform
G92 E0
G92 E0
G1 F1500 E-6.5
;LAYER_COUNT:108
;LAYER:0
M107
M204 S1000
G0 F7500 X98.739 Y99.665 Z0.3
;TYPE:SKIRT
G1 F1500 E0
G1 X99.665 Y98.739 E0.06533
G1 X100.251 Y98.209 E0.10475
G1 X100.705 Y97.865 E0.13317
G1 X101.773 Y97.117 E0.19822
G1 X102.442 Y96.697 E0.23763
G1 X102.944 Y96.44 E0.26577
G1 X104.131 Y95.885 E0.33114
G1 X104.863 Y95.587 E0.37057
G1 X105.423 Y95.415 E0.3998
G1 X106.685 Y95.078 E0.46497
G1 X107.457 Y94.913 E0.50435
G1 X108.017 Y94.844 E0.5325
G1 X109.32 Y94.73 E0.59776
G1 X110.109 Y94.701 E0.63715
G1 X110.68 Y94.73 E0.66567
G1 X111.983 Y94.844 E0.73092
G1 X112.765 Y94.952 E0.77031
G1 X113.315 Y95.078 E0.79846
G1 X114.577 Y95.415 E0.86363
G1 X115.329 Y95.657 E0.90304
G1 X115.869 Y95.885 E0.93228
G1 X117.056 Y96.44 E0.99766
G1 X117.753 Y96.81 E1.03703
G1 X118.227 Y97.117 E1.0652
G1 X119.295 Y97.865 E1.13025
G1 X119.918 Y98.35 E1.16964
G1 X120.335 Y98.739 E1.19809
G1 X121.261 Y99.665 E1.26343
G1 X121.791 Y100.251 E1.30285
G1 X122.135 Y100.705 E1.33126
G1 X122.883 Y101.773 E1.39632
G1 X123.303 Y102.442 E1.43572
G1 X123.56 Y102.945 E1.4639
G1 X124.114 Y104.13 E1.52917
G1 X124.412 Y104.861 E1.56855
G1 X124.583 Y105.418 E1.59762
G1 X124.921 Y106.682 E1.6629
G1 X125.086 Y107.454 E1.70228
G1 X125.156 Y108.016 E1.73054
G1 X125.27 Y109.317 E1.79569
G1 X125.299 Y110.106 E1.83508
G1 X125.269 Y110.687 E1.86411
G1 X125.152 Y112.006 E1.93017
G1 X125.043 Y112.788 E1.96956
G1 X124.917 Y113.335 E1.99757
G1 X124.583 Y114.582 E2.06197
G1 X124.341 Y115.334 E2.10138
G1 X124.116 Y115.865 E2.13016
G1 X123.561 Y117.053 E2.19557
G1 X123.191 Y117.751 E2.23499
G1 X122.883 Y118.227 E2.26327
G1 X122.135 Y119.295 E2.32832
G1 X121.65 Y119.918 E2.36771
G1 X121.261 Y120.335 E2.39617
G1 X120.335 Y121.261 E2.4615
G1 X119.749 Y121.791 E2.50092
G1 X119.295 Y122.135 E2.52934
G1 X118.227 Y122.883 E2.59439
G1 X117.558 Y123.303 E2.6338
G1 X117.056 Y123.56 E2.66193
G1 X115.869 Y124.115 E2.72731
G1 X115.137 Y124.413 E2.76674
G1 X114.577 Y124.585 E2.79596
G1 X113.315 Y124.922 E2.86113
G1 X112.543 Y125.087 E2.90052
G1 X111.983 Y125.156 E2.92867
G1 X110.68 Y125.27 E2.99392
G1 X109.891 Y125.299 E3.03331
G1 X109.32 Y125.27 E3.06183
G1 X108.017 Y125.156 E3.12709
G1 X107.235 Y125.048 E3.16647
G1 X106.685 Y124.922 E3.19463
G1 X105.423 Y124.585 E3.25979
G1 X104.671 Y124.343 E3.2992
G1 X104.131 Y124.115 E3.32845
G1 X102.944 Y123.56 E3.39382
G1 X102.247 Y123.19 E3.43319
G1 X101.773 Y122.883 E3.46137
G1 X100.705 Y122.135 E3.52642
G1 X100.082 Y121.65 E3.56581
G1 X99.665 Y121.261 E3.59426
G1 X98.739 Y120.335 E3.65959
G1 X98.209 Y119.749 E3.69901
G1 X97.865 Y119.295 E3.72743
G1 X97.117 Y118.227 E3.79248
G1 X96.697 Y117.558 E3.83189
G1 X96.439 Y117.053 E3.86018
G1 X95.884 Y115.865 E3.9256
G1 X95.587 Y115.134 E3.96496
G1 X95.415 Y114.578 E3.994
G1 X95.078 Y113.317 E4.05912
G1 X94.913 Y112.545 E4.09851
G1 X94.844 Y111.984 E4.1267
G1 X94.73 Y110.683 E4.19186
G1 X94.701 Y109.894 E4.23125
G1 X94.73 Y109.323 E4.25977
G1 X94.844 Y108.018 E4.32513
G1 X94.952 Y107.236 E4.36451
G1 X95.078 Y106.683 E4.39281
G1 X95.415 Y105.422 E4.45793
G1 X95.658 Y104.671 E4.49731
G1 X95.884 Y104.135 E4.52633
G1 X96.439 Y102.947 E4.59175
G1 X96.809 Y102.249 E4.63116
G1 X97.117 Y101.773 E4.65945
G1 X97.865 Y100.705 E4.7245
G1 X98.35 Y100.082 E4.76389
G1 X98.739 Y99.665 E4.79234
G0 F7500 X99.021 Y99.947
G1 F1500 X99.947 Y99.021 E4.85767
G1 X100.519 Y98.507 E4.89604
G1 X100.935 Y98.193 E4.92204
G1 X102.003 Y97.445 E4.98709
G1 X102.655 Y97.037 E5.02547
G1 X103.114 Y96.803 E5.05117
G1 X104.301 Y96.248 E5.11654
G1 X105.013 Y95.958 E5.1549
G1 X105.526 Y95.802 E5.18165
G1 X106.788 Y95.465 E5.24682
G1 X107.54 Y95.305 E5.28517
G1 X108.052 Y95.242 E5.31091
G1 X109.355 Y95.128 E5.37617
G1 X110.124 Y95.101 E5.41456
G1 X110.645 Y95.128 E5.44058
G1 X111.948 Y95.242 E5.50584
G1 X112.71 Y95.349 E5.54423
G1 X113.212 Y95.465 E5.56993
G1 X114.474 Y95.802 E5.6351
G1 X115.206 Y96.038 E5.67347
G1 X115.699 Y96.248 E5.70021
G1 X116.886 Y96.803 E5.76558
G1 X117.565 Y97.164 E5.80394
G1 X117.997 Y97.445 E5.82966
G1 X119.065 Y98.193 E5.89471
G1 X119.671 Y98.666 E5.93306
G1 X120.053 Y99.021 E5.95908
G1 X120.979 Y99.947 E6.02441
G1 X121.493 Y100.519 E6.06278
G1 X121.807 Y100.935 E6.08878
G1 X122.555 Y102.003 E6.15383
G1 X122.963 Y102.655 E6.1922
G1 X123.198 Y103.114 E6.21793
G1 X123.752 Y104.299 E6.28319
G1 X124.041 Y105.012 E6.32157
G1 X124.197 Y105.521 E6.34813
G1 X124.535 Y106.785 E6.41341
G1 X124.695 Y107.538 E6.45182
G1 X124.758 Y108.051 E6.4776
G1 X124.872 Y109.352 E6.54276
G1 X124.899 Y110.121 E6.58115
G1 X124.871 Y110.652 E6.60768
G1 X124.754 Y111.971 E6.67374
G1 X124.646 Y112.732 E6.71209
G1 X124.531 Y113.232 E6.73768
G1 X124.197 Y114.479 E6.80209
G1 X123.96 Y115.21 E6.84043
G1 X123.753 Y115.696 E6.86678
G1 X123.198 Y116.884 E6.9322
G1 X122.837 Y117.563 E6.97057
G1 X122.555 Y117.997 E6.99639
G1 X121.807 Y119.065 E7.06144
G1 X121.334 Y119.671 E7.09979
G1 X120.979 Y120.053 E7.12581
G1 X120.053 Y120.979 E7.19114
G1 X119.481 Y121.493 E7.22951
G1 X119.065 Y121.807 E7.25551
G1 X117.997 Y122.555 E7.32056
G1 X117.345 Y122.963 E7.35894
G1 X116.886 Y123.197 E7.38464
G1 X115.699 Y123.752 E7.45001
G1 X114.987 Y124.042 E7.48837
G1 X114.474 Y124.198 E7.51512
G1 X113.212 Y124.535 E7.58029
G1 X112.46 Y124.695 E7.61864
G1 X111.948 Y124.758 E7.64438
G1 X110.645 Y124.872 E7.70964
G1 X109.876 Y124.899 E7.74802
G1 X109.355 Y124.872 E7.77405
G1 X108.052 Y124.758 E7.83931
G1 X107.29 Y124.651 E7.8777
G1 X106.788 Y124.535 E7.9034
G1 X105.526 Y124.198 E7.96857
G1 X104.794 Y123.962 E8.00694
G1 X104.301 Y123.752 E8.03367
G1 X103.114 Y123.197 E8.09905
G1 X102.435 Y122.836 E8.13741
G1 X102.003 Y122.555 E8.16312
G1 X100.935 Y121.807 E8.22818
G1 X100.329 Y121.334 E8.26653
G1 X99.947 Y120.979 E8.29255
G1 X99.021 Y120.053 E8.35788
G1 X98.507 Y119.481 E8.39625
G1 X98.193 Y119.065 E8.42225
G1 X97.445 Y117.997 E8.4873
G1 X97.037 Y117.345 E8.52567
G1 X96.802 Y116.884 E8.55149
G1 X96.247 Y115.696 E8.61691
G1 X95.958 Y114.983 E8.65529
G1 X95.802 Y114.475 E8.6818
G1 X95.465 Y113.214 E8.74692
G1 X95.305 Y112.461 E8.78533
G1 X95.242 Y111.949 E8.81106
G1 X95.128 Y110.648 E8.87622
G1 X95.101 Y109.879 E8.91461
G1 X95.128 Y109.358 E8.94064
G1 X95.242 Y108.053 E9.00599
G1 X95.349 Y107.291 E9.04438
G1 X95.465 Y106.786 E9.07023
G1 X95.802 Y105.525 E9.13535
G1 X96.039 Y104.794 E9.17369
G1 X96.247 Y104.304 E9.20025
G1 X96.802 Y103.116 E9.26566
G1 X97.163 Y102.437 E9.30403
G1 X97.445 Y102.003 E9.32985
G1 X98.193 Y100.935 E9.3949
G1 X98.666 Y100.329 E9.43326
G1 X99.021 Y99.947 E9.45927
G0 F7500 X99.304 Y100.23
G1 F1500 X100.23 Y99.304 E9.52461
G1 X100.787 Y98.804 E9.56195
G1 X101.164 Y98.52 E9.5855
G1 X102.232 Y97.772 E9.65055
G1 X102.867 Y97.377 E9.68786
G1 X103.283 Y97.165 E9.71115
G1 X104.47 Y96.61 E9.77653
G1 X105.164 Y96.33 E9.81386
G1 X105.629 Y96.188 E9.83812
G1 X106.891 Y95.851 E9.90329
G1 X107.623 Y95.697 E9.9406
G1 X108.087 Y95.641 E9.96392
G1 X109.39 Y95.527 E10.02918
G1 X110.138 Y95.501 E10.06652
G1 X110.61 Y95.527 E10.0901
G1 X111.913 Y95.641 E10.15536
G1 X112.654 Y95.746 E10.19269
G1 X113.109 Y95.851 E10.21599
G1 X114.371 Y96.188 E10.28116
G1 X115.082 Y96.419 E10.31846
G1 X115.53 Y96.61 E10.34275
G1 X116.717 Y97.165 E10.40813
G1 X117.377 Y97.518 E10.44547
G1 X117.768 Y97.772 E10.46873
G1 X118.836 Y98.52 E10.53378
G1 X119.425 Y98.982 E10.57113
G1 X119.77 Y99.304 E10.59467
G1 X120.696 Y100.23 E10.66001
G1 X121.196 Y100.787 E10.69735
G1 X121.48 Y101.164 E10.7209
G1 X122.228 Y102.232 E10.78595
G1 X122.623 Y102.867 E10.82326
G1 X122.835 Y103.283 E10.84655
G1 X123.389 Y104.468 E10.91181
G1 X123.669 Y105.162 E10.94915
G1 X123.81 Y105.625 E10.9733
G1 X124.148 Y106.889 E11.03857
G1 X124.303 Y107.621 E11.0759
G1 X124.359 Y108.086 E11.09927
G1 X124.473 Y109.387 E11.16442
G1 X124.499 Y110.135 E11.20176
G1 X124.473 Y110.616 E11.2258
G1 X124.356 Y111.935 E11.29186
G1 X124.25 Y112.676 E11.32921
G1 X124.145 Y113.128 E11.35236
G1 X123.811 Y114.375 E11.41676
G1 X123.579 Y115.086 E11.45407
G1 X123.391 Y115.527 E11.47799
G1 X122.836 Y116.715 E11.54341
G1 X122.484 Y117.375 E11.58073
G1 X122.228 Y117.768 E11.60413
G1 X121.48 Y118.836 E11.66918
G1 X121.018 Y119.425 E11.70653
G1 X120.696 Y119.77 E11.73007
G1 X119.77 Y120.696 E11.7954
G1 X119.213 Y121.196 E11.83275
G1 X118.836 Y121.48 E11.8563
G1 X117.768 Y122.228 E11.92135
G1 X117.133 Y122.623 E11.95866
G1 X116.717 Y122.835 E11.98195
G1 X115.53 Y123.39 E12.04732
G1 X114.836 Y123.67 E12.08466
G1 X114.371 Y123.812 E12.10892
G1 X113.109 Y124.149 E12.17408
G1 X112.377 Y124.303 E12.2114
G1 X111.913 Y124.359 E12.23472
G1 X110.61 Y124.473 E12.29997
G1 X109.862 Y124.499 E12.33731
G1 X109.39 Y124.473 E12.3609
G1 X108.087 Y124.359 E12.42615
G1 X107.346 Y124.254 E12.46349
G1 X106.891 Y124.149 E12.48679
G1 X105.629 Y123.812 E12.55196
G1 X104.918 Y123.581 E12.58925
G1 X104.47 Y123.39 E12.61355
G1 X103.283 Y122.835 E12.67892
G1 X102.623 Y122.482 E12.71627
G1 X102.232 Y122.228 E12.73953
G1 X101.164 Y121.48 E12.80458
G1 X100.575 Y121.018 E12.84192
G1 X100.23 Y120.696 E12.86547
G1 X99.304 Y119.77 E12.9308
G1 X98.804 Y119.213 E12.96815
G1 X98.52 Y118.836 E12.99169
G1 X97.772 Y117.768 E13.05675
G1 X97.377 Y117.133 E13.09406
G1 X97.164 Y116.715 E13.11746
G1 X96.609 Y115.527 E13.18288
G1 X96.329 Y114.833 E13.22021
G1 X96.188 Y114.371 E13.24431
G1 X95.851 Y113.11 E13.30943
G1 X95.697 Y112.378 E13.34675
G1 X95.641 Y111.914 E13.37007
G1 X95.527 Y110.613 E13.43522
G1 X95.501 Y109.865 E13.47257
G1 X95.527 Y109.393 E13.49615
G1 X95.641 Y108.088 E13.5615
G1 X95.745 Y107.347 E13.59883
G1 X95.851 Y106.89 E13.62224
G1 X96.188 Y105.629 E13.68736
G1 X96.42 Y104.917 E13.72472
G1 X96.609 Y104.473 E13.74879
G1 X97.164 Y103.285 E13.81421
G1 X97.516 Y102.625 E13.85153
G1 X97.772 Y102.232 E13.87493
G1 X98.52 Y101.164 E13.93998
G1 X98.982 Y100.575 E13.97733
G1 X99.304 Y100.23 E14.00087
G0 F7500 X99.587 Y100.513
G1 F1500 X100.513 Y99.587 E14.06621
G1 X101.054 Y99.103 E14.10242
G1 X101.394 Y98.848 E14.12363
G1 X102.462 Y98.1 E14.18868
G1 X103.079 Y97.717 E14.22491
G1 X103.453 Y97.527 E14.24584
G1 X104.64 Y96.972 E14.31121
G1 X105.313 Y96.701 E14.34741
G1 X105.732 Y96.574 E14.36925
G1 X106.994 Y96.237 E14.43442
G1 X107.705 Y96.089 E14.47065
G1 X108.122 Y96.039 E14.4916
G1 X109.425 Y95.925 E14.55686
G1 X110.151 Y95.902 E14.5931
G1 X110.575 Y95.925 E14.61428
G1 X111.878 Y96.039 E14.67953
G1 X112.597 Y96.142 E14.71577
G1 X113.006 Y96.237 E14.73672
G1 X114.268 Y96.574 E14.80189
G1 X114.958 Y96.8 E14.83811
G1 X115.36 Y96.972 E14.85993
G1 X116.547 Y97.527 E14.9253
G1 X117.188 Y97.871 E14.96159
G1 X117.538 Y98.1 E14.98246
G1 X118.606 Y98.848 E15.04751
G1 X119.177 Y99.297 E15.08375
G1 X119.487 Y99.587 E15.10493
G1 X120.413 Y100.513 E15.17026
G1 X120.897 Y101.054 E15.20648
G1 X121.152 Y101.394 E15.22768
G1 X121.9 Y102.462 E15.29273
G1 X122.283 Y103.079 E15.32896
G1 X122.473 Y103.453 E15.34989
G1 X123.027 Y104.638 E15.41516
G1 X123.298 Y105.312 E15.4514
G1 X123.424 Y105.728 E15.47308
G1 X123.762 Y106.992 E15.53836
G1 X123.911 Y107.703 E15.5746
G1 X123.961 Y108.121 E15.59561
G1 X124.075 Y109.422 E15.66076
G1 X124.098 Y110.148 E15.697
G1 X124.074 Y110.581 E15.71863
G1 X123.957 Y111.9 E15.7847
G1 X123.853 Y112.619 E15.82094
G1 X123.758 Y113.025 E15.84175
G1 X123.424 Y114.272 E15.90615
G1 X123.198 Y114.962 E15.94238
G1 X123.029 Y115.358 E15.96386
G1 X122.474 Y116.546 E16.02927
G1 X122.13 Y117.186 E16.06552
G1 X121.9 Y117.538 E16.0865
G1 X121.152 Y118.606 E16.15155
G1 X120.703 Y119.177 E16.18779
G1 X120.413 Y119.487 E16.20897
G1 X119.487 Y120.413 E16.27431
G1 X118.946 Y120.897 E16.31052
G1 X118.606 Y121.152 E16.33172
G1 X117.538 Y121.9 E16.39678
G1 X116.921 Y122.283 E16.43301
G1 X116.547 Y122.473 E16.45393
G1 X115.36 Y123.028 E16.51931
G1 X114.687 Y123.299 E16.5555
G1 X114.268 Y123.426 E16.57735
G1 X113.006 Y123.763 E16.64251
G1 X112.295 Y123.911 E16.67875
G1 X111.878 Y123.961 E16.6997
G1 X110.575 Y124.075 E16.76496
G1 X109.849 Y124.098 E16.80119
G1 X109.425 Y124.075 E16.82238
G1 X108.122 Y123.961 E16.88763
G1 X107.403 Y123.858 E16.92387
G1 X106.994 Y123.763 E16.94482
G1 X105.732 Y123.426 E17.00999
G1 X105.042 Y123.2 E17.04621
G1 X104.64 Y123.028 E17.06803
G1 X103.453 Y122.473 E17.1334
G1 X102.812 Y122.129 E17.16969
G1 X102.462 Y121.9 E17.19056
G1 X101.394 Y121.152 E17.25561
G1 X100.823 Y120.703 E17.29185
G1 X100.513 Y120.413 E17.31303
G1 X99.587 Y119.487 E17.37836
G1 X99.103 Y118.946 E17.41458
G1 X98.848 Y118.606 E17.43578
G1 X98.1 Y117.538 E17.50083
G1 X97.717 Y116.921 E17.53706
G1 X97.526 Y116.546 E17.55806
G1 X96.971 Y115.358 E17.62348
G1 X96.701 Y114.684 E17.6597
G1 X96.575 Y114.268 E17.68139
G1 X96.238 Y113.007 E17.74651
G1 X96.089 Y112.296 E17.78275
G1 X96.039 Y111.879 E17.8037
G1 X95.925 Y110.578 E17.86886
G1 X95.902 Y109.852 E17.9051
G1 X95.925 Y109.428 E17.92628
G1 X96.039 Y108.123 E17.99164
G1 X96.142 Y107.404 E18.02787
G1 X96.238 Y106.993 E18.04893
G1 X96.575 Y105.732 E18.11405
G1 X96.801 Y105.042 E18.15027
G1 X96.971 Y104.642 E18.17196
G1 X97.526 Y103.454 E18.23738
G1 X97.87 Y102.814 E18.27362
G1 X98.1 Y102.462 E18.2946
G1 X98.848 Y101.394 E18.35965
G1 X99.297 Y100.823 E18.39589
G1 X99.587 Y100.513 E18.41707
G0 F7500 X99.87 Y100.796
G1 F1500 X100.796 Y99.87 E18.48241
G1 X101.321 Y99.401 E18.51753
G1 X101.623 Y99.176 E18.53632
G1 X102.691 Y98.428 E18.60137
G1 X103.29 Y98.057 E18.63652
G1 X103.622 Y97.89 E18.65506
G1 X104.809 Y97.335 E18.72043
G1 X105.463 Y97.073 E18.75558
G1 X105.835 Y96.961 E18.77497
G1 X107.097 Y96.624 E18.84013
G1 X107.787 Y96.481 E18.87529
G1 X108.157 Y96.438 E18.89387
G1 X109.46 Y96.324 E18.95913
G1 X110.163 Y96.302 E18.99422
G1 X110.54 Y96.324 E19.01306
G1 X111.843 Y96.438 E19.07831
G1 X112.54 Y96.539 E19.11345
G1 X112.903 Y96.624 E19.13205
G1 X114.165 Y96.961 E19.19722
G1 X114.833 Y97.181 E19.23231
G1 X115.191 Y97.335 E19.25175
G1 X116.378 Y97.89 E19.31712
G1 X116.998 Y98.224 E19.35226
G1 X117.309 Y98.428 E19.37081
G1 X118.377 Y99.176 E19.43586
G1 X118.93 Y99.612 E19.471
G1 X119.204 Y99.87 E19.48977
G1 X120.13 Y100.796 E19.55511
G1 X120.599 Y101.321 E19.59023
G1 X120.824 Y101.623 E19.60902
G1 X121.572 Y102.691 E19.67407
G1 X121.943 Y103.29 E19.70922
G1 X122.111 Y103.622 E19.72778
G1 X122.665 Y104.807 E19.79305
G1 X122.926 Y105.461 E19.82818
G1 X123.038 Y105.831 E19.84746
G1 X123.376 Y107.095 E19.91274
G1 X123.519 Y107.785 E19.9479
G1 X123.562 Y108.156 E19.96653
G1 X123.676 Y109.457 E20.03168
G1 X123.698 Y110.16 E20.06677
G1 X123.676 Y110.546 E20.08606
G1 X123.559 Y111.865 E20.15213
G1 X123.457 Y112.561 E20.18722
G1 X123.372 Y112.921 E20.20568
G1 X123.038 Y114.168 E20.27008
G1 X122.817 Y114.837 E20.30523
G1 X122.666 Y115.188 E20.3243
G1 X122.111 Y116.376 E20.38971
G1 X121.778 Y116.996 E20.42483
G1 X121.572 Y117.309 E20.44352
G1 X120.824 Y118.377 E20.50857
G1 X120.388 Y118.93 E20.5437
G1 X120.13 Y119.204 E20.56248
G1 X119.204 Y120.13 E20.62781
G1 X118.679 Y120.599 E20.66294
G1 X118.377 Y120.824 E20.68172
G1 X117.309 Y121.572 E20.74678
G1 X116.71 Y121.943 E20.78193
G1 X116.378 Y122.11 E20.80047
G1 X115.191 Y122.665 E20.86584
G1 X114.537 Y122.927 E20.90099
G1 X114.165 Y123.039 E20.92037
G1 X112.903 Y123.376 E20.98554
G1 X112.213 Y123.519 E21.0207
G1 X111.843 Y123.562 E21.03928
G1 X110.54 Y123.676 E21.10454
G1 X109.837 Y123.698 E21.13963
G1 X109.46 Y123.676 E21.15847
